!!!OTL: 111. Freylekhs
!!!Genre:	Freylekhs
!!!Mode:	Altered Dorian
!!!Listening/dance:	dance
!!!:	*B-:
!!!One_Mode:	no
**kern
*part1
*staff1
*clefG2
*k[b-]
*g:dor
*M2/4
=1-
*>A
!LO:TX:a:i:t=G-raised-fourth
(>8qff#X/
8gg)
4gg
8gg
=2
4g
4ff
=3
(16ffLL
16eeJ
8ddJ)
(16ddLL
16cc#XJ
8b-J)
=4
(16b-LL
16aJ
8gJ)
4dd
=5
8gg
4gg
8gg
=6
4g
4ff
=7
(16ffLL
16eeJ
8ddJ)
(16ddLL
16cc#XJ
8b-J)
*>A1
=8
16b-LL
16aJ
8gJ
8g
16r
16dd
*>A2
=9:|!
16b-LL
16aJ
8gJ
8gL
8b-J
=10!|:
*>B
(>16qb-/LL
16qcc#X/JJ
8aL)
8b-
8cc#
8ddJ
=11
4.a
8ff
=12
(>16ffLL
16eeJ
8ddJ)
(>16ddLL
16cc#XJ
8b-J)
=13
16b-LL
16aJ
8gJ
4dd
=14
8aL
8b-
8cc#X
8ddJ
=15
4.a
8ff
=16
(>16ffLL
16eeJ
8ddJ)
(>16ddLL
16cc#XJ
8b-J)
*>B1
=17
16b-LL
16aJ
8gJ
8g
24b-LL
24ccn
24b-JJ
*>B2
=18:|!
16b-LL
16aJ
8gJ
8g
8r
*>bM
*B-:
=19!|:
!LO:TX:a:i:t=Bb-major
*>C
*k[b-e-]
8r
(<24fLL
24g
24fJJ
8enL
8fJ)
=20
8b-'L
8f'
8dd'
8f'J
=21
8ee-'L
8f'
8dd'
8f'J
=22
24cc^LL
24dd
24cc#XJ
8b-J
(>8dd^L
8b-J)
=23
8r
(<24fLL
24g
24fJJ
8enL
8fJ)
=24
8b-'L
8f'
8dd'
8f'J
*>C1
=25
8ee-'L
8f'J
8dd'L
8b-'J
=26
16ccLL
16dd
16ccX
16aJJ
4b-
*>C2
=27:|!
4ee-
4dd
=28
(>16ccLL
16dd
16cc
16aJJ)
8b-L
8ddJ
*>eM
==
*-
